; generated by Slic3r 1.0.0RC2 on 2015-02-04 at 20:12:53

; layer_height = 0.3
; perimeters = 2
; top_solid_layers = 3
; bottom_solid_layers = 3
; fill_density = 0.35
; perimeter_speed = 30
; infill_speed = 30
; travel_speed = 100
; nozzle_diameter = 0.5
; filament_diameter = 2.89
; extrusion_multiplier = 1
; perimeters extrusion width = 0.50mm
; infill extrusion width = 0.70mm
; solid infill extrusion width = 0.70mm
; top infill extrusion width = 0.70mm
; first layer extrusion width = 0.60mm

G21 ; set units to millimeters
G28 ; home all axes
G90 ; use absolute coordinates
G92 E0
M82 ; use absolute distances for extrusion
G1 F1500.000 E-1.40000
G92 E0
G1 Z0.300 F6000.000
G1 X43.420 Y42.070 F6000.000
G1 E1.40000 F1500.000
G1 X44.860 Y40.940 E1.44843 F600
G1 X46.510 Y40.230 E1.49596
G1 X46.990 Y40.090 E1.50919
G1 X47.980 Y39.880 E1.53596
G1 X48.990 Y39.800 E1.56277
G1 X135.920 Y39.760 E3.86283
G1 X136.840 Y39.820 E3.88722
G1 X137.740 Y40.000 E3.91151
G1 X137.930 Y40.050 E3.91671
G1 X139.330 Y40.580 E3.95631
G1 X140.580 Y41.380 E3.99558
G1 X140.880 Y41.630 E4.00591
G1 X141.540 Y42.240 E4.02969
G1 X142.200 Y43.050 E4.05734
G1 X142.880 Y44.200 E4.09269
G1 X143.330 Y45.450 E4.12784
G1 X143.440 Y45.870 E4.13932
G1 X143.610 Y46.720 E4.16226
G1 X157.460 Y149.350 E6.90233
G1 X157.530 Y150.310 E6.92780
G1 X157.530 Y153.310 E7.00718
G1 X157.400 Y154.660 E7.04306
G1 X157.020 Y155.970 E7.07915
G1 X156.420 Y157.150 E7.11418
G1 X155.660 Y158.160 E7.14762
G1 X155.470 Y158.370 E7.15511
G1 X154.580 Y159.200 E7.18731
G1 X153.570 Y159.860 E7.21924
G1 X153.330 Y159.990 E7.22646
G1 X152.220 Y160.480 E7.25856
G1 X151.050 Y160.770 E7.29046
G1 X149.880 Y160.940 E7.32174
G1 X148.990 Y161.000 E7.34534
G1 X34.990 Y161.000 E10.36163
G1 X34.040 Y160.940 E10.38682
G1 X33.220 Y160.830 E10.40871
G1 X32.410 Y160.620 E10.43085
G1 X31.670 Y160.380 E10.45143
G1 X30.900 Y160.070 E10.47340
G1 X30.160 Y159.680 E10.49553
G1 X29.930 Y159.540 E10.50265
G1 X28.820 Y158.710 E10.53932
G1 X27.890 Y157.670 E10.57624
G1 X27.170 Y156.480 E10.61304
G1 X26.680 Y155.050 E10.65304
G1 X26.520 Y154.180 E10.67644
G1 X26.460 Y153.310 E10.69951
G1 X26.460 Y150.310 E10.77889
G1 X26.530 Y149.300 E10.80568
G1 X41.160 Y46.630 E13.54964
G1 X41.380 Y45.640 E13.57647
G1 X41.730 Y44.700 E13.60301
G1 X41.960 Y44.190 E13.61781
G1 X42.590 Y43.060 E13.65204
G1 X43.364 Y42.137 E13.68393
G1 X43.830 Y42.480 F6000.000
G1 X45.160 Y41.440 E13.72860 F600
G1 X46.670 Y40.780 E13.77220
G1 X47.150 Y40.640 E13.78543
G1 X48.060 Y40.450 E13.81003
G1 X48.990 Y40.380 E13.83470
G1 X135.920 Y40.340 E16.13476
G1 X136.760 Y40.400 E16.15704
G1 X137.590 Y40.560 E16.17941
G1 X137.780 Y40.610 E16.18461
G1 X139.070 Y41.090 E16.22102
G1 X140.220 Y41.830 E16.25721
G1 X140.510 Y42.070 E16.26717
G1 X141.120 Y42.640 E16.28926
G1 X141.730 Y43.390 E16.31484
G1 X142.350 Y44.440 E16.34710
G1 X142.770 Y45.590 E16.37949
G1 X142.880 Y46.010 E16.39098
G1 X143.040 Y46.800 E16.41231
G1 X156.890 Y149.430 E19.15238
G1 X156.950 Y150.310 E19.17572
G1 X156.950 Y153.310 E19.25509
G1 X156.830 Y154.550 E19.28806
G1 X156.480 Y155.750 E19.32113
G1 X155.930 Y156.840 E19.35343
G1 X155.230 Y157.770 E19.38423
G1 X155.040 Y157.980 E19.39172
G1 X154.220 Y158.740 E19.42131
G1 X153.290 Y159.350 E19.45073
G1 X153.050 Y159.480 E19.45796
G1 X152.030 Y159.930 E19.48745
G1 X150.960 Y160.200 E19.51665
G1 X149.810 Y160.370 E19.54741
G1 X148.990 Y160.420 E19.56915
G1 X34.990 Y160.420 E22.58544
G1 X34.090 Y160.370 E22.60929
G1 X33.330 Y160.260 E22.62961
G1 X32.590 Y160.070 E22.64982
G1 X31.850 Y159.830 E22.67041
G1 X31.140 Y159.550 E22.69060
G1 X30.460 Y159.190 E22.71096
G1 X30.230 Y159.050 E22.71808
G1 X29.210 Y158.280 E22.75190
G1 X28.350 Y157.330 E22.78580
G1 X27.700 Y156.230 E22.81961
G1 X27.240 Y154.910 E22.85659
G1 X27.090 Y154.110 E22.87813
G1 X27.040 Y153.310 E22.89934
G1 X27.040 Y150.310 E22.97871
G1 X27.110 Y149.380 E23.00339
G1 X41.740 Y46.710 E25.74735
G1 X41.930 Y45.810 E25.77169
G1 X42.250 Y44.940 E25.79621
G1 X42.480 Y44.430 E25.81102
G1 X43.070 Y43.390 E25.84265
G1 X43.775 Y42.547 E25.87173
G1 F1500.000 E24.47173
G92 E0
G1 X49.163 Y47.844 F6000.000
G1 E1.40000 F1500.000
G1 X55.796 Y47.844 E1.57548 F600
G1 X50.642 Y55.123 E1.81146
G1 X50.642 Y130.374 E3.80250
G1 X50.614 Y134.442 E3.91016
G1 X50.750 Y134.968 E3.92452
G1 X50.791 Y134.992 E3.92578
G1 X50.938 Y135.215 E3.93284
G1 X51.141 Y135.406 E3.94023
G1 X51.380 Y135.546 E3.94756
G1 X51.561 Y135.618 E3.95271
G1 X51.666 Y135.707 E3.95634
G1 X56.061 Y135.677 E4.07264
G1 X127.939 Y135.677 E5.97443
G1 X132.173 Y135.706 E6.08647
G1 X132.610 Y135.561 E6.09866
G1 X132.837 Y135.425 E6.10565
G1 X133.037 Y135.236 E6.11293
G1 X133.248 Y134.897 E6.12350
G1 X133.386 Y134.495 E6.13475
G1 X133.358 Y130.374 E6.24380
G1 X133.358 Y55.123 E8.23483
G1 X128.195 Y47.831 E8.47123
G1 X135.642 Y47.800 E8.66827
G1 X135.642 Y148.377 E11.32942
G1 X135.715 Y148.932 E11.34422
G1 X135.952 Y149.502 E11.36055
G1 X136.328 Y149.992 E11.37689
G1 X136.817 Y150.368 E11.39323
G1 X137.388 Y150.604 E11.40956
G1 X137.942 Y150.677 E11.42437
G1 X149.190 Y150.683 E11.72196
G1 X149.492 Y150.782 E11.73038
G1 X149.492 Y152.888 E11.78611
G1 X148.961 Y152.962 E11.80029
G1 X35.013 Y152.962 E14.81523
G1 X34.810 Y152.956 E14.82060
G1 X34.508 Y152.858 E14.82901
G1 X34.508 Y150.751 E14.88474
G1 X35.039 Y150.677 E14.89893
G1 X44.812 Y150.676 E15.15752
G1 X48.066 Y150.706 E15.24361
G1 X48.139 Y150.649 E15.24606
G1 X48.348 Y150.587 E15.25183
G1 X48.562 Y150.477 E15.25820
G1 X48.762 Y150.316 E15.26499
G1 X48.955 Y150.057 E15.27354
G1 X49.168 Y149.896 E15.28062
G1 X49.163 Y47.930 E17.97850
G1 X48.585 Y47.633 F6000.000
G1 X48.710 Y47.360 E17.98643 F600
G1 X49.031 Y47.265 E17.99527
G1 X57.205 Y47.265 E18.21155
G1 X56.451 Y47.913 E18.23785
G1 X51.221 Y55.307 E18.47747
G1 X51.221 Y130.376 E20.46370
G1 X51.193 Y134.371 E20.56941
G1 X51.250 Y134.590 E20.57539
G1 X51.390 Y134.846 E20.58313
G1 X51.559 Y134.986 E20.58892
G1 X51.686 Y135.045 E20.59262
G1 X51.823 Y135.082 E20.59640
G1 X51.877 Y135.127 E20.59826
G1 X56.059 Y135.099 E20.70891
G1 X127.941 Y135.099 E22.61081
G1 X132.068 Y135.127 E22.72001
G1 X132.373 Y135.026 E22.72851
G1 X132.495 Y134.952 E22.73230
G1 X132.600 Y134.852 E22.73612
G1 X132.716 Y134.667 E22.74191
G1 X132.807 Y134.388 E22.74966
G1 X132.779 Y130.376 E22.85584
G1 X132.779 Y55.307 E24.84206
G1 X127.543 Y47.908 E25.08189
G1 X126.781 Y47.258 E25.10839
G1 X135.948 Y47.222 E25.35095
G1 X136.143 Y47.392 E25.35779
G1 X136.221 Y47.704 E25.36630
G1 X136.221 Y148.339 E28.02898
G1 X136.279 Y148.781 E28.04076
G1 X136.457 Y149.211 E28.05307
G1 X136.740 Y149.580 E28.06537
G1 X137.109 Y149.863 E28.07768
G1 X137.539 Y150.041 E28.08999
G1 X137.980 Y150.099 E28.10177
G1 X148.996 Y150.099 E28.39322
G1 X149.290 Y150.108 E28.40101
G1 X150.071 Y150.362 E28.42274
G1 X150.071 Y153.289 E28.50021
G1 X149.830 Y153.419 E28.50745
G1 X148.987 Y153.541 E28.52999
G1 X35.004 Y153.541 E31.54582
G1 X34.710 Y153.532 E31.55361
G1 X33.929 Y153.278 E31.57534
G1 X33.929 Y150.350 E31.65281
G1 X34.170 Y150.220 E31.66005
G1 X35.013 Y150.099 E31.68259
G1 X44.813 Y150.097 E31.94189
G1 X47.869 Y150.125 E32.02273
G1 X47.917 Y150.087 E32.02435
G1 X48.139 Y150.039 E32.03036
G1 X48.257 Y149.977 E32.03389
G1 X48.360 Y149.892 E32.03741
G1 X48.511 Y149.668 E32.04458
G1 X48.589 Y149.609 E32.04717
G1 X48.585 Y47.719 E34.74303
G1 X48.876 Y47.562 F6000.000
G1 X57.991 Y47.000 F6000.000
G1 X58.183 Y47.431 E34.75551 F600
G1 X57.238 Y47.740 E34.78182
G1 X58.183 Y47.431 F6000.000
G1 X125.194 Y47.442 E36.55484 F600
G1 X125.773 Y47.441 E36.57015
G1 X125.839 Y47.339 E36.57336
G1 X125.803 Y47.434 F6000.000
G1 X126.885 Y47.831 E36.60385 F600
G1 X135.252 Y49.273 F6000.000
G1 X134.497 Y48.195 E36.63871 F600
G1 X133.792 Y48.198 E36.65741
G1 X135.252 Y50.283 E36.72488
G1 X135.252 Y51.293 E36.75166
G1 X133.087 Y48.201 E36.85173
G1 X132.381 Y48.204 E36.87042
G1 X135.252 Y52.304 E37.00309
G1 X135.252 Y53.314 E37.02987
G1 X131.676 Y48.207 E37.19514
G1 X130.970 Y48.210 E37.21384
G1 X135.252 Y54.325 E37.41171
G1 X135.252 Y55.335 E37.43849
G1 X130.265 Y48.213 E37.66896
G1 X129.559 Y48.216 E37.68766
G1 X135.252 Y56.346 E37.95073
G1 X135.252 Y57.356 E37.97751
G1 X133.748 Y55.208 E38.04701
G1 X133.748 Y56.219 E38.07379
G1 X135.252 Y58.367 E38.14328
G1 X135.252 Y59.377 E38.17006
G1 X133.748 Y57.229 E38.23956
G1 X133.748 Y58.240 E38.26634
G1 X135.252 Y60.387 E38.33583
G1 X135.252 Y61.398 E38.36262
G1 X133.748 Y59.250 E38.43211
G1 X133.748 Y60.261 E38.45889
G1 X135.252 Y62.408 E38.52838
G1 X135.252 Y63.419 E38.55517
G1 X133.748 Y61.271 E38.62466
G1 X133.748 Y62.282 E38.65144
G1 X135.252 Y64.429 E38.72094
G1 X135.252 Y65.440 E38.74772
G1 X133.748 Y63.292 E38.81721
G1 X133.748 Y64.302 E38.84399
G1 X135.252 Y66.450 E38.91349
G1 X135.252 Y67.461 E38.94027
G1 X133.748 Y65.313 E39.00976
G1 X133.748 Y66.323 E39.03654
G1 X135.252 Y68.471 E39.10604
G1 X135.252 Y69.481 E39.13282
G1 X133.748 Y67.334 E39.20231
G1 X133.748 Y68.344 E39.22910
G1 X135.252 Y70.492 E39.29859
G1 X135.252 Y71.502 E39.32537
G1 X133.748 Y69.355 E39.39486
G1 X133.748 Y70.365 E39.42165
G1 X135.252 Y72.513 E39.49114
G1 X135.252 Y73.523 E39.51792
G1 X133.748 Y71.376 E39.58742
G1 X133.748 Y72.386 E39.61420
G1 X135.252 Y74.534 E39.68369
G1 X135.252 Y75.544 E39.71047
G1 X133.748 Y73.397 E39.77997
G1 X133.748 Y74.407 E39.80675
G1 X135.252 Y76.555 E39.87624
G1 X135.252 Y77.565 E39.90302
G1 X133.748 Y75.417 E39.97252
G1 X133.748 Y76.428 E39.99930
G1 X135.252 Y78.576 E40.06879
G1 X135.252 Y79.586 E40.09558
G1 X133.748 Y77.438 E40.16507
G1 X133.748 Y78.449 E40.19185
G1 X135.252 Y80.596 E40.26134
G1 X135.252 Y81.607 E40.28813
G1 X133.748 Y79.459 E40.35762
G1 X133.748 Y80.470 E40.38440
G1 X135.252 Y82.617 E40.45389
G1 X135.252 Y83.628 E40.48068
G1 X133.748 Y81.480 E40.55017
G1 X133.748 Y82.491 E40.57695
G1 X135.252 Y84.638 E40.64645
G1 X135.252 Y85.649 E40.67323
G1 X133.748 Y83.501 E40.74272
G1 X133.748 Y84.511 E40.76950
G1 X135.252 Y86.659 E40.83900
G1 X135.252 Y87.670 E40.86578
G1 X133.748 Y85.522 E40.93527
G1 X133.748 Y86.532 E40.96205
G1 X135.252 Y88.680 E41.03155
G1 X135.252 Y89.690 E41.05833
G1 X133.748 Y87.543 E41.12782
G1 X133.748 Y88.553 E41.15461
G1 X135.252 Y90.701 E41.22410
G1 X135.252 Y91.711 E41.25088
G1 X133.748 Y89.564 E41.32037
G1 X133.748 Y90.574 E41.34716
G1 X135.252 Y92.722 E41.41665
G1 X135.252 Y93.732 E41.44343
G1 X133.748 Y91.585 E41.51292
G1 X133.748 Y92.595 E41.53971
G1 X135.252 Y94.743 E41.60920
G1 X135.252 Y95.753 E41.63598
G1 X133.748 Y93.605 E41.70548
G1 X133.748 Y94.616 E41.73226
G1 X135.252 Y96.764 E41.80175
G1 X135.252 Y97.774 E41.82853
G1 X133.748 Y95.626 E41.89803
G1 X133.748 Y96.637 E41.92481
G1 X135.252 Y98.784 E41.99430
G1 X135.252 Y99.795 E42.02108
G1 X133.748 Y97.647 E42.09058
G1 X133.748 Y98.658 E42.11736
G1 X135.252 Y100.805 E42.18685
G1 X135.252 Y101.816 E42.21363
G1 X133.748 Y99.668 E42.28313
G1 X133.748 Y100.679 E42.30991
G1 X135.252 Y102.826 E42.37940
G1 X135.252 Y103.837 E42.40619
G1 X133.748 Y101.689 E42.47568
G1 X133.748 Y102.699 E42.50246
G1 X135.252 Y104.847 E42.57195
G1 X135.252 Y105.858 E42.59874
G1 X133.748 Y103.710 E42.66823
G1 X133.748 Y104.720 E42.69501
G1 X135.252 Y106.868 E42.76450
G1 X135.252 Y107.878 E42.79129
G1 X133.748 Y105.731 E42.86078
G1 X133.748 Y106.741 E42.88756
G1 X135.252 Y108.889 E42.95706
G1 X135.252 Y109.899 E42.98384
G1 X133.748 Y107.752 E43.05333
G1 X133.748 Y108.762 E43.08011
G1 X135.252 Y110.910 E43.14961
G1 X135.252 Y111.920 E43.17639
G1 X133.748 Y109.773 E43.24588
G1 X133.748 Y110.783 E43.27266
G1 X135.252 Y112.931 E43.34216
G1 X135.252 Y113.941 E43.36894
G1 X133.748 Y111.793 E43.43843
G1 X133.748 Y112.804 E43.46521
G1 X135.252 Y114.952 E43.53471
G1 X135.252 Y115.962 E43.56149
G1 X133.748 Y113.814 E43.63098
G1 X133.748 Y114.825 E43.65776
G1 X135.252 Y116.972 E43.72726
G1 X135.252 Y117.983 E43.75404
G1 X133.748 Y115.835 E43.82353
G1 X133.748 Y116.846 E43.85032
G1 X135.252 Y118.993 E43.91981
G1 X135.252 Y120.004 E43.94659
G1 X133.748 Y117.856 E44.01608
G1 X133.748 Y118.867 E44.04287
G1 X135.252 Y121.014 E44.11236
G1 X135.252 Y122.025 E44.13914
G1 X133.748 Y119.877 E44.20863
G1 X133.748 Y120.887 E44.23542
G1 X135.252 Y123.035 E44.30491
G1 X135.252 Y124.046 E44.33169
G1 X133.748 Y121.898 E44.40118
G1 X133.748 Y122.908 E44.42797
G1 X135.252 Y125.056 E44.49746
G1 X135.252 Y126.066 E44.52424
G1 X133.748 Y123.919 E44.59373
G1 X133.748 Y124.929 E44.62052
G1 X135.252 Y127.077 E44.69001
G1 X135.252 Y128.087 E44.71679
G1 X133.748 Y125.940 E44.78629
G1 X133.748 Y126.950 E44.81307
G1 X135.252 Y129.098 E44.88256
G1 X135.252 Y130.108 E44.90934
G1 X133.748 Y127.961 E44.97884
G1 X133.748 Y128.971 E45.00562
G1 X135.252 Y131.119 E45.07511
G1 X135.252 Y132.129 E45.10189
G1 X133.748 Y129.981 E45.17139
G1 X133.752 Y130.998 E45.19833
G1 X135.252 Y133.140 E45.26762
G1 X135.252 Y134.150 E45.29441
G1 X133.760 Y132.019 E45.36337
G1 X133.767 Y133.039 E45.39042
G1 X135.252 Y135.160 E45.45905
G1 X135.252 Y136.171 E45.48584
G1 X133.774 Y134.060 E45.55414
G1 X133.658 Y134.905 E45.57675
G1 X135.252 Y137.181 E45.65040
G1 X135.252 Y138.192 E45.67718
G1 X133.349 Y135.474 E45.76514
G1 X132.900 Y135.843 E45.78054
G1 X135.252 Y139.202 E45.88924
G1 X135.252 Y140.213 E45.91602
G1 X132.345 Y136.061 E46.05037
G1 X131.660 Y136.093 E46.06854
G1 X135.252 Y141.223 E46.23454
G1 X135.252 Y142.234 E46.26132
G1 X130.949 Y136.088 E46.46017
G1 X130.238 Y136.084 E46.47901
G1 X135.252 Y143.244 E46.71071
G1 X135.252 Y144.255 E46.73749
G1 X129.527 Y136.079 E47.00204
G1 X128.816 Y136.074 E47.02088
G1 X135.252 Y145.265 E47.31828
G1 X135.252 Y146.275 E47.34507
G1 X128.105 Y136.069 E47.67532
G1 X127.397 Y136.068 E47.69409
G1 X135.252 Y147.286 E48.05708
G1 X135.252 Y148.296 E48.08386
G1 X126.689 Y136.068 E48.47954
G1 X125.982 Y136.068 E48.49829
G1 X137.538 Y152.572 E49.03232
G1 X136.831 Y152.572 E49.05107
G1 X125.274 Y136.068 E49.58509
G1 X124.567 Y136.068 E49.60385
G1 X136.123 Y152.572 E50.13787
G1 X135.415 Y152.572 E50.15662
G1 X123.859 Y136.068 E50.69064
G1 X123.152 Y136.068 E50.70940
G1 X134.708 Y152.572 E51.24342
G1 X134.000 Y152.572 E51.26217
G1 X122.444 Y136.068 E51.79620
G1 X121.737 Y136.068 E51.81495
G1 X133.293 Y152.572 E52.34897
G1 X132.585 Y152.572 E52.36773
G1 X121.029 Y136.068 E52.90175
G1 X120.322 Y136.068 E52.92050
G1 X131.878 Y152.572 E53.45452
G1 X131.170 Y152.572 E53.47328
G1 X119.614 Y136.068 E54.00730
G1 X118.907 Y136.068 E54.02605
G1 X130.463 Y152.572 E54.56007
G1 X129.755 Y152.572 E54.57883
G1 X118.199 Y136.068 E55.11285
G1 X117.492 Y136.068 E55.13160
G1 X129.048 Y152.572 E55.66563
G1 X128.340 Y152.572 E55.68438
G1 X116.784 Y136.068 E56.21840
G1 X116.077 Y136.068 E56.23716
G1 X127.633 Y152.572 E56.77118
G1 X126.925 Y152.572 E56.78993
G1 X115.369 Y136.068 E57.32395
G1 X114.662 Y136.068 E57.34271
G1 X126.218 Y152.572 E57.87673
G1 X125.510 Y152.572 E57.89548
G1 X113.954 Y136.068 E58.42951
G1 X113.247 Y136.068 E58.44826
G1 X124.803 Y152.572 E58.98228
G1 X124.095 Y152.572 E59.00104
G1 X112.539 Y136.068 E59.53506
G1 X111.832 Y136.068 E59.55381
G1 X123.388 Y152.572 E60.08783
G1 X122.680 Y152.572 E60.10659
G1 X111.124 Y136.068 E60.64061
G1 X110.416 Y136.068 E60.65936
G1 X121.973 Y152.572 E61.19339
G1 X121.265 Y152.572 E61.21214
G1 X109.709 Y136.068 E61.74616
G1 X109.001 Y136.068 E61.76491
G1 X120.558 Y152.572 E62.29894
G1 X119.850 Y152.572 E62.31769
G1 X108.294 Y136.068 E62.85171
G1 X107.586 Y136.068 E62.87047
G1 X119.142 Y152.572 E63.40449
G1 X118.435 Y152.572 E63.42324
G1 X106.879 Y136.068 E63.95726
G1 X106.171 Y136.068 E63.97602
G1 X117.727 Y152.572 E64.51004
G1 X117.020 Y152.572 E64.52879
G1 X105.464 Y136.068 E65.06282
G1 X104.756 Y136.068 E65.08157
G1 X116.312 Y152.572 E65.61559
G1 X115.605 Y152.572 E65.63435
G1 X104.049 Y136.068 E66.16837
G1 X103.341 Y136.068 E66.18712
G1 X114.897 Y152.572 E66.72114
G1 X114.190 Y152.572 E66.73990
G1 X102.634 Y136.068 E67.27392
G1 X101.926 Y136.068 E67.29267
G1 X113.482 Y152.572 E67.82670
G1 X112.775 Y152.572 E67.84545
G1 X101.219 Y136.068 E68.37947
G1 X100.511 Y136.068 E68.39822
G1 X112.067 Y152.572 E68.93225
G1 X111.360 Y152.572 E68.95100
G1 X99.804 Y136.068 E69.48502
